MODULE Module1
	
    CONST robtarget Target_20:=[[1026.47451507,257.477057736,1446.51271012],[0.49999989,0,0.866025467,0],[0,-1,0,0],[9E9,9E9,9E9,9E9,9E9,9E9]];
	CONST robtarget Target_30:=[[1023.801444907,-115.697368709,1446.51271012],[0.49999989,0,0.866025467,0],[-1,0,-1,0],[9E9,9E9,9E9,9E9,9E9,9E9]];
	CONST robtarget Target_40:=[[1023.801444907,-115.697368709,1226.99271012],[0.49999989,0,0.866025467,0],[-1,0,-1,0],[9E9,9E9,9E9,9E9,9E9,9E9]];
	CONST robtarget Target_50:=[[1026.47451507,257.477057736,1226.99271012],[0.49999989,0,0.866025467,0],[0,-1,0,0],[9E9,9E9,9E9,9E9,9E9,9E9]];
	CONST robtarget Target_60:=[[1026.47451507,257.477057736,1446.51271012],[0.49999989,0,0.866025467,0],[0,-1,0,0],[9E9,9E9,9E9,9E9,9E9,9E9]];
	CONST robtarget Target_70:=[[1026.155995735,213.010110352,1553.349765864],[0.49999989,0,0.866025467,0],[0,-1,0,0],[9E9,9E9,9E9,9E9,9E9,9E9]];
	CONST robtarget Target_80:=[[1023.701539656,-129.644658685,1405.539134454],[0.49999989,0,0.866025467,0],[-1,0,-1,0],[9E9,9E9,9E9,9E9,9E9,9E9]];
	CONST robtarget Target_90:=[[1024.324333189,-42.699458969,1203.972334672],[0.49999989,0,0.866025467,0],[-1,0,-1,0],[9E9,9E9,9E9,9E9,9E9,9E9]];
	CONST robtarget Target_100:=[[1026.778789267,299.955310068,1351.782966081],[0.49999989,0,0.866025467,0],[0,-1,0,0],[9E9,9E9,9E9,9E9,9E9,9E9]];
	CONST robtarget Target_110:=[[1026.155995735,213.010110352,1553.349765864],[0.49999989,0,0.866025467,0],[0,-1,0,0],[9E9,9E9,9E9,9E9,9E9,9E9]];
    CONST robtarget Target_120:=[[1025.560421981,129.86493256,1633.836361306],[0.49999989,0,0.866025467,0],[0,-1,0,0],[9E9,9E9,9E9,9E9,9E9,9E9]];
    CONST robtarget Target_130:=[[1023.726049934,-126.222897054,1362.392156249],[0.49999989,0,0.866025467,0],[-1,0,-1,0],[9E9,9E9,9E9,9E9,9E9,9E9]];
    CONST robtarget Target_140:=[[1024.869768039,33.446068537,1211.748391904],[0.49999989,0,0.866025467,0],[0,-1,0,0],[9E9,9E9,9E9,9E9,9E9,9E9]];
    CONST robtarget Target_150:=[[1026.704140086,289.533898151,1483.192596961],[0.49999989,0,0.866025467,0],[0,-1,0,0],[9E9,9E9,9E9,9E9,9E9,9E9]];
    CONST robtarget Target_160:=[[1025.560421981,129.86493256,1633.836361306],[0.49999989,0,0.866025467,0],[0,-1,0,0],[9E9,9E9,9E9,9E9,9E9,9E9]];
    CONST robtarget Target_170:=[[1024.785210489,21.641397027,1674.807482209],[0.49999989,0,0.866025467,0],[0,-1,0,0],[9E9,9E9,9E9,9E9,9E9,9E9]];
    CONST robtarget Target_180:=[[1023.870966649,-105.991773791,1324.129231214],[0.49999989,0,0.866025467,0],[-1,0,-1,0],[9E9,9E9,9E9,9E9,9E9,9E9]];
    CONST robtarget Target_190:=[[1025.348533889,100.284258442,1249.048969351],[0.49999989,0,0.866025467,0],[0,-1,0,0],[9E9,9E9,9E9,9E9,9E9,9E9]];
    CONST robtarget Target_200:=[[1026.262777729,227.91742926,1599.727220346],[0.49999989,0,0.866025467,0],[0,-1,0,0],[9E9,9E9,9E9,9E9,9E9,9E9]];
    CONST robtarget Target_210:=[[1024.785210489,21.641397027,1674.807482209],[0.49999989,0,0.866025467,0],[0,-1,0,0],[9E9,9E9,9E9,9E9,9E9,9E9]];
    CONST robtarget Target_220:=[[1023.957160888,-93.95861212,1669.561573027],[0.49999989,0,0.866025467,0],[-1,0,-1,0],[9E9,9E9,9E9,9E9,9E9,9E9]];
    CONST robtarget Target_230:=[[1024.112586095,-72.260448941,1297.008941291],[0.49999989,0,0.866025467,0],[-1,0,-1,0],[9E9,9E9,9E9,9E9,9E9,9E9]];
    CONST robtarget Target_240:=[[1025.682320066,146.882535987,1309.772894133],[0.49999989,0,0.866025467,0],[0,-1,0,0],[9E9,9E9,9E9,9E9,9E9,9E9]];
    CONST robtarget Target_250:=[[1025.526894859,125.184372808,1682.32552587],[0.49999989,0,0.866025467,0],[0,-1,0,0],[9E9,9E9,9E9,9E9,9E9,9E9]];
    CONST robtarget Target_260:=[[1023.957160888,-93.95861212,1669.561573027],[0.49999989,0,0.866025467,0],[-1,0,-1,0],[9E9,9E9,9E9,9E9,9E9,9E9]];
    CONST robtarget Target_270:=[[1023.211715416,-198.026657296,1618.956695511],[0.49999989,0,0.866025467,0],[-1,0,-1,0],[9E9,9E9,9E9,9E9,9E9,9E9]];
    CONST robtarget Target_280:=[[1024.411387113,-30.546280636,1285.467292265],[0.49999989,0,0.866025467,0],[-1,0,-1,0],[9E9,9E9,9E9,9E9,9E9,9E9]];
    CONST robtarget Target_290:=[[1025.816529906,165.618924072,1383.987688303],[0.49999989,0,0.866025467,0],[0,-1,0,0],[9E9,9E9,9E9,9E9,9E9,9E9]];
    CONST robtarget Target_300:=[[1024.616858208,-1.861452588,1717.477091549],[0.49999989,0,0.866025467,0],[-1,0,-1,0],[9E9,9E9,9E9,9E9,9E9,9E9]];
    CONST robtarget Target_310:=[[1023.211715416,-198.026657296,1618.956695511],[0.49999989,0,0.866025467,0],[-1,0,-1,0],[9E9,9E9,9E9,9E9,9E9,9E9]];
    CONST robtarget Target_320:=[[1022.670804939,-273.540558734,1531.27017745],[0.49999989,0,0.866025467,0],[-1,0,-1,0],[9E9,9E9,9E9,9E9,9E9,9E9]];
    CONST robtarget Target_330:=[[1024.718495483,12.327636958,1291.392126117],[0.49999989,0,0.866025467,0],[0,-1,0,0],[9E9,9E9,9E9,9E9,9E9,9E9]];
    CONST robtarget Target_340:=[[1025.729211001,153.428753176,1459.554202271],[0.49999989,0,0.866025467,0],[0,-1,0,0],[9E9,9E9,9E9,9E9,9E9,9E9]];
    CONST robtarget Target_350:=[[1023.681520457,-132.439442516,1699.432253604],[0.49999989,0,0.866025467,0],[-1,0,-1,0],[9E9,9E9,9E9,9E9,9E9,9E9]];
    CONST robtarget Target_360:=[[1022.670804939,-273.540558734,1531.27017745],[0.49999989,0,0.866025467,0],[-1,0,-1,0],[9E9,9E9,9E9,9E9,9E9,9E9]];
    CONST robtarget Target_370:=[[1022.422904987,-308.148674744,1420.844708486],[0.49999989,0,0.866025467,0],[-1,0,-1,0],[9E9,9E9,9E9,9E9,9E9,9E9]];
    CONST robtarget Target_380:=[[1024.983678169,49.348512054,1313.81433089],[0.49999989,0,0.866025467,0],[0,-1,0,0],[9E9,9E9,9E9,9E9,9E9,9E9]];
    CONST robtarget Target_390:=[[1025.434645913,112.305942565,1524.112188634],[0.49999989,0,0.866025467,0],[0,-1,0,0],[9E9,9E9,9E9,9E9,9E9,9E9]];
    CONST robtarget Target_400:=[[1022.873872731,-245.191244233,1631.14256623],[0.49999989,0,0.866025467,0],[-1,0,-1,0],[9E9,9E9,9E9,9E9,9E9,9E9]];
    CONST robtarget Target_410:=[[1022.422904987,-308.148674744,1420.844708486],[0.49999989,0,0.866025467,0],[-1,0,-1,0],[9E9,9E9,9E9,9E9,9E9,9E9]];
    CONST robtarget Target_420:=[[1022.508564007,-296.190232405,1305.742338122],[0.49999989,0,0.866025467,0],[-1,0,-1,0],[9E9,9E9,9E9,9E9,9E9,9E9]];
    CONST robtarget Target_430:=[[1025.163559825,74.460922067,1349.066356187],[0.49999989,0,0.866025467,0],[0,-1,0,0],[9E9,9E9,9E9,9E9,9E9,9E9]];
    CONST robtarget Target_440:=[[1024.981015999,48.976859336,1567.102040478],[0.49999989,0,0.866025467,0],[0,-1,0,0],[9E9,9E9,9E9,9E9,9E9,9E9]];
    CONST robtarget Target_450:=[[1022.32602018,-321.674295136,1523.778022413],[0.49999989,0,0.866025467,0],[-1,0,-1,0],[9E9,9E9,9E9,9E9,9E9,9E9]];
    CONST robtarget Target_460:=[[1022.508564007,-296.190232405,1305.742338122],[0.49999989,0,0.866025467,0],[-1,0,-1,0],[9E9,9E9,9E9,9E9,9E9,9E9]];
    CONST robtarget Target_470:=[[1022.913770941,-239.621247658,1204.790106269],[0.49999989,0,0.866025467,0],[-1,0,-1,0],[9E9,9E9,9E9,9E9,9E9,9E9]];
    CONST robtarget Target_480:=[[1025.228717608,83.557285685,1391.382106269],[0.49999989,0,0.866025467,0],[0,-1,0,0],[9E9,9E9,9E9,9E9,9E9,9E9]];
    CONST robtarget Target_490:=[[1024.442520501,-26.199898563,1581.492002908],[0.49999989,0,0.866025467,0],[-1,0,-1,0],[9E9,9E9,9E9,9E9,9E9,9E9]];
    CONST robtarget Target_500:=[[1022.127573834,-349.378431906,1394.900002908],[0.49999989,0,0.866025467,0],[-1,0,-1,0],[9E9,9E9,9E9,9E9,9E9,9E9]];
    CONST robtarget Target_510:=[[1022.913770941,-239.621247658,1204.790106269],[0.49999989,0,0.866025467,0],[-1,0,-1,0],[9E9,9E9,9E9,9E9,9E9,9E9]];
    CONST robtarget Target_520:=[[1023.572246989,-147.694584107,1134.500546007],[0.49999989,0,0.866025467,0],[-1,0,-1,0],[9E9,9E9,9E9,9E9,9E9,9E9]];
    CONST robtarget Target_530:=[[1025.168493803,75.149730848,1433.840087572],[0.49999989,0,0.866025467,0],[0,-1,0,0],[9E9,9E9,9E9,9E9,9E9,9E9]];
    CONST robtarget Target_540:=[[1023.907239936,-100.927835266,1564.928341623],[0.49999989,0,0.866025467,0],[-1,0,-1,0],[9E9,9E9,9E9,9E9,9E9,9E9]];
    CONST robtarget Target_550:=[[1022.310993122,-323.772150221,1265.588800058],[0.49999989,0,0.866025467,0],[-1,0,-1,0],[9E9,9E9,9E9,9E9,9E9,9E9]];
    CONST robtarget Target_560:=[[1023.572246989,-147.694584107,1134.500546007],[0.49999989,0,0.866025467,0],[-1,0,-1,0],[9E9,9E9,9E9,9E9,9E9,9E9]];
    PERS wobjdata Workobject_1:=[FALSE,TRUE,"",[[0,0,0],[1,0,0,0]],[[0,0,0],[1,0,0,0]]];

    PROC main()
        Path_10;
        Path_20;
        Path_30;
        Path_40;
        Path_50;
        Path_60;
        Path_70;
        Path_80;
        Path_90;
        Path_100;
        Path_110;
    ENDPROC
    	PROC Path_10()
	    MoveL Target_20,v1000,z100,tool0\WObj:=Workobject_1;
	    MoveL Target_30,v1000,z100,tool0\WObj:=Workobject_1;
	    MoveL Target_40,v1000,z100,tool0\WObj:=Workobject_1;
	    MoveL Target_50,v1000,z100,tool0\WObj:=Workobject_1;
	    MoveL Target_60,v1000,z100,tool0\WObj:=Workobject_1;
	ENDPROC
	PROC Path_20()
	    MoveL Target_70,v1000,z100,tool0\WObj:=Workobject_1;
	    MoveL Target_80,v1000,z100,tool0\WObj:=Workobject_1;
	    MoveL Target_90,v1000,z100,tool0\WObj:=Workobject_1;
	    MoveL Target_100,v1000,z100,tool0\WObj:=Workobject_1;
	    MoveL Target_110,v1000,z100,tool0\WObj:=Workobject_1;
	ENDPROC
    PROC Path_30()
        MoveL Target_120,v1000,z100,tool0\WObj:=Workobject_1;
        MoveL Target_130,v1000,z100,tool0\WObj:=Workobject_1;
        MoveL Target_140,v1000,z100,tool0\WObj:=Workobject_1;
        MoveL Target_150,v1000,z100,tool0\WObj:=Workobject_1;
        MoveL Target_160,v1000,z100,tool0\WObj:=Workobject_1;
    ENDPROC
    PROC Path_40()
        MoveL Target_170,v1000,z100,tool0\WObj:=Workobject_1;
        MoveL Target_180,v1000,z100,tool0\WObj:=Workobject_1;
        MoveL Target_190,v1000,z100,tool0\WObj:=Workobject_1;
        MoveL Target_200,v1000,z100,tool0\WObj:=Workobject_1;
        MoveL Target_210,v1000,z100,tool0\WObj:=Workobject_1;
    ENDPROC
    PROC Path_50()
        MoveL Target_220,v1000,z100,tool0\WObj:=Workobject_1;
        MoveL Target_230,v1000,z100,tool0\WObj:=Workobject_1;
        MoveL Target_240,v1000,z100,tool0\WObj:=Workobject_1;
        MoveL Target_250,v1000,z100,tool0\WObj:=Workobject_1;
        MoveL Target_260,v1000,z100,tool0\WObj:=Workobject_1;
    ENDPROC
    PROC Path_60()
        MoveL Target_270,v1000,z100,tool0\WObj:=Workobject_1;
        MoveL Target_280,v1000,z100,tool0\WObj:=Workobject_1;
        MoveL Target_290,v1000,z100,tool0\WObj:=Workobject_1;
        MoveL Target_300,v1000,z100,tool0\WObj:=Workobject_1;
        MoveL Target_310,v1000,z100,tool0\WObj:=Workobject_1;
    ENDPROC
    PROC Path_70()
        MoveL Target_320,v1000,z100,tool0\WObj:=Workobject_1;
        MoveL Target_330,v1000,z100,tool0\WObj:=Workobject_1;
        MoveL Target_340,v1000,z100,tool0\WObj:=Workobject_1;
        MoveL Target_350,v1000,z100,tool0\WObj:=Workobject_1;
        MoveL Target_360,v1000,z100,tool0\WObj:=Workobject_1;
    ENDPROC
    PROC Path_80()
        MoveL Target_370,v1000,z100,tool0\WObj:=Workobject_1;
        MoveL Target_380,v1000,z100,tool0\WObj:=Workobject_1;
        MoveL Target_390,v1000,z100,tool0\WObj:=Workobject_1;
        MoveL Target_400,v1000,z100,tool0\WObj:=Workobject_1;
        MoveL Target_410,v1000,z100,tool0\WObj:=Workobject_1;
    ENDPROC
    PROC Path_90()
        MoveL Target_420,v1000,z100,tool0\WObj:=Workobject_1;
        MoveL Target_430,v1000,z100,tool0\WObj:=Workobject_1;
        MoveL Target_440,v1000,z100,tool0\WObj:=Workobject_1;
        MoveL Target_450,v1000,z100,tool0\WObj:=Workobject_1;
        MoveL Target_460,v1000,z100,tool0\WObj:=Workobject_1;
    ENDPROC
    PROC Path_100()
        MoveL Target_470,v1000,z100,tool0\WObj:=Workobject_1;
        MoveL Target_480,v1000,z100,tool0\WObj:=Workobject_1;
        MoveL Target_490,v1000,z100,tool0\WObj:=Workobject_1;
        MoveL Target_500,v1000,z100,tool0\WObj:=Workobject_1;
        MoveL Target_510,v1000,z100,tool0\WObj:=Workobject_1;
    ENDPROC
    PROC Path_110()
        MoveL Target_520,v1000,z100,tool0\WObj:=Workobject_1;
        MoveL Target_530,v1000,z100,tool0\WObj:=Workobject_1;
        MoveL Target_540,v1000,z100,tool0\WObj:=Workobject_1;
        MoveL Target_550,v1000,z100,tool0\WObj:=Workobject_1;
        MoveL Target_560,v1000,z100,tool0\WObj:=Workobject_1;
    ENDPROC
ENDMODULE